SVG_Azure_Grouped/Storage/Storage Account Container.svg

<?xml version="1.0" encoding="UTF-8" standalone="no"?>
<!-- Generated by Microsoft Visio, SVG Export Storage Account Container.svg Page-1 -->

<svg
   xmlns:dc="http://purl.org/dc/elements/1.1/"
   xmlns:cc="http://creativecommons.org/ns#"
   xmlns:rdf="http://www.w3.org/1999/02/22-rdf-syntax-ns#"
   xmlns:svg="http://www.w3.org/2000/svg"
   xmlns="http://www.w3.org/2000/svg"
   xmlns:sodipodi="http://sodipodi.sourceforge.net/DTD/sodipodi-0.dtd"
   xmlns:inkscape="http://www.inkscape.org/namespaces/inkscape"
   width="0.78736007in"
   height="0.66920543in"
   viewBox="0 0 56.689993 48.182861"
   xml:space="preserve"
   class="st6"
   version="1.1"
   id="svg39"
   sodipodi:docname="Storage Account Container.svg"
   style="font-size:12px;overflow:visible;color-interpolation-filters:sRGB;fill:none;fill-rule:evenodd;stroke-linecap:square;stroke-miterlimit:3"
   inkscape:version="0.92.5 (2060ec1f9f, 2020-04-08)"><metadata
   id="metadata45"><rdf:RDF><cc:Work
       rdf:about=""><dc:format>image/svg+xml</dc:format><dc:type
         rdf:resource="http://purl.org/dc/dcmitype/StillImage" /></cc:Work></rdf:RDF></metadata><defs
   id="defs43" /><sodipodi:namedview
   pagecolor="#ffffff"
   bordercolor="#666666"
   borderopacity="1"
   objecttolerance="10"
   gridtolerance="10"
   guidetolerance="10"
   inkscape:pageopacity="0"
   inkscape:pageshadow="2"
   inkscape:window-width="640"
   inkscape:window-height="480"
   id="namedview41"
   showgrid="false"
   inkscape:zoom="1.8741153"
   inkscape:cx="37.795223"
   inkscape:cy="17.602588"
   inkscape:window-x="0"
   inkscape:window-y="0"
   inkscape:window-maximized="0"
   inkscape:current-layer="svg39" />
	<style
   type="text/css"
   id="style2">
	<![CDATA[
		.st1 {fill:#a0a1a2;stroke:none;stroke-linecap:butt;stroke-width:12.24}
		.st2 {fill:#7a7a7a;stroke:none;stroke-linecap:butt;stroke-width:12.24}
		.st3 {fill:#ffffff;fill-opacity:0.8;stroke:none;stroke-linecap:butt;stroke-width:12.24}
		.st4 {fill:#ff8c00;stroke:none;stroke-linecap:butt;stroke-width:12.24}
		.st5 {fill:#ffffff;fill-opacity:0.2;stroke:none;stroke-linecap:butt;stroke-width:12.24}
		.st6 {fill:none;fill-rule:evenodd;font-size:12px;overflow:visible;stroke-linecap:square;stroke-miterlimit:3}
	]]>
	</style>

	<g
   id="g37"
   transform="translate(-12.24,-12.241445)">
		<title
   id="title4">Page-1</title>
		<g
   id="group20177-1"
   transform="translate(12.24,-34.0157)">
			<title
   id="title6">Storage Account Container.20177</title>
			<g
   id="group20178-2">
				<title
   id="title8">g14</title>
				<g
   id="shape20179-3">
					<title
   id="title10">path4</title>
					<path
   d="m 0,92.3 c 0,1.13 0.91,2.14 2.04,2.14 h 52.5 c 1.13,0 2.15,-0.9 2.15,-2.14 V 54.95 H 0 Z"
   class="st1"
   id="path12"
   inkscape:connector-curvature="0"
   style="fill:#a0a1a2;stroke:none;stroke-width:12.23999977;stroke-linecap:butt" />
				</g>
				<g
   id="shape20180-5"
   transform="translate(0,-39.612)">
					<title
   id="title15">path6</title>
					<path
   d="M 54.54,85.87 H 2.04 C 0.91,85.87 0,86.88 0,88.01 v 6.43 h 56.69 v -6.43 c 0,-1.13 -0.9,-2.14 -2.15,-2.14 z"
   class="st2"
   id="path17"
   inkscape:connector-curvature="0"
   style="fill:#7a7a7a;stroke:none;stroke-width:12.23999977;stroke-linecap:butt" />
				</g>
				<g
   id="shape20181-7"
   transform="translate(10.9984,-4.28848)">
					<title
   id="title20">path8</title>
					<path
   d="M 32.09,69.96 V 67.25 H 14.85 L 10.77,63.18 H 0 v 29.68 c 0,0.91 0.68,1.58 1.59,1.58 h 30.84 c 0.91,0 1.59,-0.67 1.59,-1.58 v -22.9 z"
   class="st3"
   id="path22"
   inkscape:connector-curvature="0"
   style="fill:#ffffff;fill-opacity:0.8;stroke:none;stroke-width:12.23999977;stroke-linecap:butt" />
				</g>
				<g
   id="shape20182-9"
   transform="translate(10.9984,-4.28848)">
					<title
   id="title25">path10</title>
					<path
   d="m 3.17,69.96 v 22.9 c 0,0.91 -0.68,1.58 -1.58,1.58 C 0.68,94.44 0,93.77 0,92.86 V 63.18 h 10.89 l 4.08,4.07 h 17.12 v 2.71 z"
   class="st4"
   id="path27"
   inkscape:connector-curvature="0"
   style="fill:#ff8c00;stroke:none;stroke-width:12.23999977;stroke-linecap:butt" />
				</g>
				<g
   id="shape20183-11"
   transform="translate(0,-0.112855)">
					<title
   id="title30">path12</title>
					<path
   d="M 2.27,46.37 C 1.02,46.37 0,47.38 0,48.63 v 43.56 c 0,1.24 1.02,2.25 2.27,2.25 H 4.76 L 49.44,46.37 Z"
   class="st5"
   id="path32"
   inkscape:connector-curvature="0"
   style="fill:#ffffff;fill-opacity:0.2;stroke:none;stroke-width:12.23999977;stroke-linecap:butt" />
				</g>
			</g>
		</g>
	</g>
</svg>

<?xml version="1.0" encoding="UTF-8" standalone="no"?>
<!DOCTYPE svg PUBLIC "-//W3C//DTD SVG 1.1//EN" "http://www.w3.org/Graphics/SVG/1.1/DTD/svg11.dtd">
<!-- Generated by Microsoft Visio, SVG Export Storage Account Container.svg Page-1 -->
<svg xmlns="http://www.w3.org/2000/svg" xmlns:xlink="http://www.w3.org/1999/xlink" xmlns:ev="http://www.w3.org/2001/xml-events"
		width="1.1274in" height="1.31173in" viewBox="0 0 81.1729 94.4447" xml:space="preserve" color-interpolation-filters="sRGB"
		class="st6">
	<style type="text/css">
	<![CDATA[
		.st1 {fill:#a0a1a2;stroke:none;stroke-linecap:butt;stroke-width:12.24}
		.st2 {fill:#7a7a7a;stroke:none;stroke-linecap:butt;stroke-width:12.24}
		.st3 {fill:#ffffff;fill-opacity:0.8;stroke:none;stroke-linecap:butt;stroke-width:12.24}
		.st4 {fill:#ff8c00;stroke:none;stroke-linecap:butt;stroke-width:12.24}
		.st5 {fill:#ffffff;fill-opacity:0.2;stroke:none;stroke-linecap:butt;stroke-width:12.24}
		.st6 {fill:none;fill-rule:evenodd;font-size:12px;overflow:visible;stroke-linecap:square;stroke-miterlimit:3}
	]]>
	</style>

	<g>
		<title>Page-1</title>
		<g id="group19722-1" transform="translate(12.24,-34.0157)">
			<title>Storage Account Container.19722</title>
			<g id="group19723-2">
				<title>g14</title>
				<g id="shape19724-3">
					<title>path4</title>
					<path d="M0 92.3 C0 93.43 0.91 94.44 2.04 94.44 L54.54 94.44 C55.67 94.44 56.69 93.54 56.69 92.3 L56.69 54.95
								 L0 54.95 L0 92.3 Z" class="st1"/>
				</g>
				<g id="shape19725-5" transform="translate(0,-39.612)">
					<title>path6</title>
					<path d="M54.54 85.87 L2.04 85.87 C0.91 85.87 0 86.88 0 88.01 L0 94.44 L56.69 94.44 L56.69 88.01 C56.69 86.88
								 55.79 85.87 54.54 85.87 Z" class="st2"/>
				</g>
				<g id="shape19726-7" transform="translate(10.9984,-4.28848)">
					<title>path8</title>
					<path d="M32.09 69.96 L32.09 67.25 L14.85 67.25 L10.77 63.18 L0 63.18 L0 92.86 C0 93.77 0.68 94.44 1.59 94.44
								 L32.43 94.44 C33.34 94.44 34.02 93.77 34.02 92.86 L34.02 69.96 L32.09 69.96 Z" class="st3"/>
				</g>
				<g id="shape19727-9" transform="translate(10.9984,-4.28848)">
					<title>path10</title>
					<path d="M3.17 69.96 L3.17 92.86 C3.17 93.77 2.49 94.44 1.59 94.44 C0.68 94.44 0 93.77 0 92.86 L0 63.18 L10.89
								 63.18 L14.97 67.25 L32.09 67.25 L32.09 69.96 L3.17 69.96 Z" class="st4"/>
				</g>
				<g id="shape19728-11" transform="translate(0,-0.112855)">
					<title>path12</title>
					<path d="M2.27 46.37 C1.02 46.37 0 47.38 0 48.63 L0 92.19 C0 93.43 1.02 94.44 2.27 94.44 L4.76 94.44 L49.44 46.37
								 L2.27 46.37 Z" class="st5"/>
				</g>
			</g>
		</g>
	</g>
</svg>
